pro/src/icons/stroke-show.svg

<svg width="48" height="48" viewBox="0 0 48 48" xmlns="http://www.w3.org/2000/svg">
<path id="icon" fill-rule="evenodd" clip-rule="evenodd" d="M5.17857 25.0066C4.80685 24.6056 4.50508 24.2631 4.27957 24C4.54666 23.6884 4.92059 23.2655 5.39088 22.766C6.4294 21.663 7.93171 20.1931 9.78522 18.7252C13.5201 15.7676 18.5455 12.9259 24.0001 12.9259C29.4546 12.9259 34.48 15.7676 38.2149 18.7252C40.0684 20.1931 41.5707 21.663 42.6092 22.766C43.0795 23.2655 43.4534 23.6884 43.7205 24C43.4534 24.3116 43.0795 24.7345 42.6092 25.234C41.5707 26.337 40.0684 27.8069 38.2149 29.2748C34.48 32.2324 29.4546 35.0741 24.0001 35.0741C20.6325 35.0741 17.4217 33.989 14.5682 32.4522C14.0862 32.1925 13.4769 32.3584 13.2073 32.8225C12.9377 33.2867 13.1099 33.8734 13.5919 34.133C16.6384 35.7739 20.1876 37 24.0001 37C30.1455 37 35.6201 33.8231 39.4852 30.7623C41.4317 29.2208 43.0044 27.6815 44.0909 26.5276C44.6347 25.95 45.0582 25.4674 45.3474 25.127C45.492 24.9569 45.6032 24.8221 45.679 24.7288L45.7354 24.6592L45.7662 24.6206L45.7896 24.5911L45.7962 24.5827L45.7982 24.5802L45.7988 24.5793C46.0665 24.2366 46.0665 23.7634 45.7988 23.4207L45.7982 23.4198L45.7962 23.4173L45.7896 23.4089L45.7662 23.3794C45.7461 23.3542 45.717 23.3178 45.679 23.2712C45.6032 23.1779 45.492 23.0431 45.3474 22.873C45.0582 22.5326 44.6347 22.05 44.0909 21.4724C43.0044 20.3185 41.4317 18.7792 39.4852 17.2377C35.6201 14.1769 30.1455 11 24.0001 11C17.8546 11 12.38 14.1769 8.51488 17.2377C6.56839 18.7792 4.9957 20.3185 3.90922 21.4724C3.3654 22.05 2.94187 22.5326 2.6527 22.873C2.50807 23.0431 2.39694 23.1779 2.32107 23.2712C2.28313 23.3178 2.25399 23.3542 2.23388 23.3794L2.2105 23.4089L2.20394 23.4173L2.20195 23.4198L2.20128 23.4207C1.93361 23.7634 1.93354 24.2364 2.20118 24.5792L2.20355 24.5823L2.20932 24.5896L2.22971 24.6153C2.24723 24.6374 2.27255 24.669 2.3055 24.7097C2.37141 24.791 2.46788 24.9084 2.5935 25.0572C2.84469 25.3547 3.21278 25.7781 3.68653 26.2891C4.6332 27.3104 6.00624 28.6868 7.71572 30.1112C8.13337 30.4592 8.76489 30.4152 9.12626 30.0131C9.48764 29.6109 9.44202 29.0028 9.02438 28.6548C7.39387 27.2962 6.0819 25.9811 5.17857 25.0066ZM2.20128 23.4207C2.20103 23.421 2.20082 23.4212 3.00005 24L2.20128 23.4207ZM3.00005 24C2.20076 24.5787 2.20108 24.5791 2.20118 24.5792L3.00005 24ZM45.7988 23.4207L45 24C45.7993 23.4212 45.7991 23.421 45.7988 23.4207ZM45 24L45.7988 24.5793C45.7991 24.579 45.7993 24.5788 45 24ZM17 24C17 20.2755 20.1323 17.2592 24 17.2592C25.6795 17.2592 27.2193 17.8312 28.4298 18.7773C28.8587 19.1124 29.4884 19.0494 29.8365 18.6364C30.1845 18.2235 30.119 17.617 29.6902 17.2819C28.1407 16.071 26.1605 15.3333 24 15.3333C19.0277 15.3333 15 19.2118 15 24C15 28.7881 19.0277 32.6666 24 32.6666C28.9723 32.6666 33 28.7881 33 24C33 23.4681 32.5523 23.037 32 23.037C31.4477 23.037 31 23.4681 31 24C31 27.7244 27.8677 30.7407 24 30.7407C20.1323 30.7407 17 27.7244 17 24ZM24 26.8889C25.6569 26.8889 27 25.5955 27 24C27 23.7039 26.9537 23.4182 26.8678 23.1493C26.6326 23.6509 26.1087 24 25.5 24C24.6716 24 24 23.3533 24 22.5555C24 21.9694 24.3625 21.4649 24.8834 21.2384C24.6041 21.1556 24.3075 21.1111 24 21.1111C22.3431 21.1111 21 22.4045 21 24C21 25.5955 22.3431 26.8889 24 26.8889Z" fill="currentColor"/>
</svg>

<svg xmlns="http://www.w3.org/2000/svg" width="48" height="48"><path id="icon" fill="currentColor" fill-rule="evenodd" d="M5.179 25.007a35 35 0 0 1-.9-1.007c.268-.312.642-.735 1.112-1.234a41.6 41.6 0 0 1 4.394-4.04c3.735-2.958 8.76-5.8 14.215-5.8s10.48 2.842 14.215 5.8a41.6 41.6 0 0 1 4.394 4.04c.47.5.844.922 1.111 1.234-.267.312-.64.735-1.11 1.234a41.6 41.6 0 0 1-4.395 4.04c-3.735 2.958-8.76 5.8-14.215 5.8-3.367 0-6.578-1.085-9.432-2.622a1.02 1.02 0 0 0-1.36.37.944.944 0 0 0 .384 1.311C16.638 35.773 20.188 37 24 37c6.145 0 11.62-3.177 15.485-6.238a43.5 43.5 0 0 0 4.606-4.234 37 37 0 0 0 1.588-1.8l.056-.069.031-.038.024-.03.006-.008.002-.003a.936.936 0 0 0 0-1.16l-.002-.003-.006-.008-.024-.03-.087-.108a37.208 37.208 0 0 0-1.588-1.799 43.5 43.5 0 0 0-4.606-4.234C35.62 14.177 30.145 11 24 11s-11.62 3.177-15.485 6.238a43.5 43.5 0 0 0-4.606 4.234 37 37 0 0 0-1.588 1.8l-.087.107-.023.03-.007.008-.002.003a.936.936 0 0 0 0 1.16l.002.002.005.008.02.025.076.095q.1.122.289.347c.25.298.619.721 1.093 1.232a44 44 0 0 0 4.029 3.822c.417.348 1.049.304 1.41-.098a.94.94 0 0 0-.102-1.358 42 42 0 0 1-3.845-3.648M2.2 23.42 3 24zM3 24c-.8.579-.799.58-.799.58zm42.799-.58L45 24c.8-.579.8-.579.799-.58M45 24l.799.58zm-28 0c0-3.724 3.132-6.74 7-6.74 1.68 0 3.22.571 4.43 1.517a1.026 1.026 0 0 0 1.407-.14.94.94 0 0 0-.147-1.355A9.22 9.22 0 0 0 24 15.333c-4.972 0-9 3.879-9 8.667s4.028 8.667 9 8.667 9-3.879 9-8.667c0-.532-.448-.963-1-.963s-1 .431-1 .963c0 3.724-3.132 6.74-7 6.74s-7-3.016-7-6.74m7 2.889c1.657 0 3-1.293 3-2.889a2.8 2.8 0 0 0-.132-.85c-.235.5-.76.85-1.368.85-.828 0-1.5-.647-1.5-1.445 0-.586.363-1.09.883-1.317a3.1 3.1 0 0 0-.883-.127c-1.657 0-3 1.293-3 2.889s1.343 2.889 3 2.889" clip-rule="evenodd"/></svg>
